src/images/header-vk-icon.svg

<svg width="21" height="14" viewBox="0 0 21 14" fill="none" xmlns="http://www.w3.org/2000/svg">
<path d="M20.673 11.8153C20.673 11.7323 20.5899 11.7323 20.5899 11.6493C20.2578 10.9851 19.5106 10.1549 18.5144 9.24162C18.0162 8.82651 17.7671 8.49441 17.6011 8.32837C17.352 7.99627 17.352 7.74721 17.4351 7.41512C17.5181 7.16605 17.8502 6.75093 18.4313 6.00372C18.7634 5.58861 18.9295 5.33955 19.1785 5.09048C20.4239 3.43002 21.005 2.35071 20.839 1.85258L20.756 1.76956C20.673 1.68654 20.5899 1.60352 20.4239 1.60352C20.2578 1.52049 20.0088 1.52049 19.7597 1.60352H16.6048C16.5218 1.60352 16.5218 1.60352 16.3558 1.60352C16.2727 1.60352 16.1897 1.60352 16.1897 1.60352H16.1067H16.0237L15.9406 1.68653C15.8576 1.76956 15.8576 1.76955 15.8576 1.85258C15.5255 2.76583 15.1104 3.51303 14.6953 4.34326C14.4462 4.75838 14.1972 5.1735 13.9481 5.50559C13.699 5.83768 13.533 6.08675 13.3669 6.25279C13.2009 6.41884 13.0348 6.50186 12.9518 6.66791C12.8688 6.75093 12.7028 6.83396 12.7028 6.75094C12.6197 6.75094 12.5367 6.75093 12.5367 6.66791C12.4537 6.58489 12.3707 6.50186 12.2876 6.41884C12.2046 6.33581 12.2046 6.16977 12.1216 6.00372C12.1216 5.83768 12.1216 5.67163 12.1216 5.58861C12.1216 5.50558 12.1216 5.25652 12.1216 5.09048C12.1216 4.84141 12.1216 4.67536 12.1216 4.59233C12.1216 4.34327 12.1216 4.01118 12.1216 3.67909C12.1216 3.347 12.1216 3.09792 12.1216 2.93188C12.1216 2.76583 12.1216 2.51676 12.1216 2.35072C12.1216 2.10165 12.1216 1.9356 12.1216 1.85258C12.1216 1.76955 12.0386 1.60351 12.0386 1.52049C11.9556 1.43747 11.8725 1.35444 11.7895 1.27142C11.7065 1.18839 11.5404 1.1884 11.4574 1.10537C11.0423 1.02235 10.5442 0.939331 9.96301 0.939331C8.63464 0.939331 7.72138 1.02236 7.38929 1.1884C7.22325 1.27143 7.0572 1.35444 6.97418 1.52049C6.80813 1.68653 6.80813 1.76956 6.89115 1.76956C7.30626 1.85258 7.63836 2.01862 7.80441 2.26769L7.88743 2.43375C7.97046 2.51677 7.97044 2.68281 8.05347 2.93188C8.13649 3.18095 8.13649 3.43001 8.13649 3.76211C8.13649 4.26024 8.13649 4.75839 8.13649 5.09048C8.13649 5.50559 8.05347 5.75465 8.05347 6.00372C8.05347 6.25279 7.97046 6.41884 7.88743 6.50186C7.80441 6.66791 7.8044 6.75094 7.72138 6.75094C7.72138 6.75094 7.72137 6.83395 7.63835 6.83395C7.55533 6.83395 7.47231 6.91698 7.30626 6.91698C7.22324 6.91698 7.0572 6.83396 6.97418 6.75094C6.80813 6.66791 6.64209 6.50187 6.55906 6.33582C6.39302 6.16978 6.22697 5.9207 6.06092 5.58861C5.89487 5.25652 5.6458 4.92443 5.47975 4.42629L5.31372 4.0942C5.2307 3.92816 5.06465 3.59606 4.8986 3.18095C4.73256 2.76583 4.56651 2.43375 4.40046 2.01863C4.31744 1.85259 4.23443 1.76956 4.1514 1.68653H4.06838C4.06838 1.68653 3.98534 1.60352 3.90232 1.60352C3.8193 1.60352 3.73628 1.52049 3.65326 1.52049H0.66443C0.332338 1.52049 0.166295 1.60351 0.0832721 1.68653L0.000244141 1.76956C0.000244141 1.76956 0.000244141 1.85258 0.000244141 1.9356C0.000244141 2.01863 0.000249207 2.10164 0.0832721 2.26769C0.498387 3.26397 0.996522 4.26025 1.49466 5.25652C1.9928 6.16977 2.49094 7 2.82303 7.58117C3.23815 8.16233 3.57023 8.74349 3.98535 9.24162C4.40046 9.73976 4.64953 10.0719 4.73255 10.2379C4.89859 10.4039 4.98161 10.487 5.06464 10.57L5.31372 10.8191C5.47976 10.9851 5.72883 11.2342 6.06092 11.4832C6.39301 11.7323 6.80812 11.9814 7.22324 12.2304C7.63835 12.4795 8.1365 12.6456 8.63464 12.8116C9.2158 12.9777 9.71393 13.0607 10.2121 12.9777H11.4574C11.7065 12.9777 11.8725 12.8946 12.0386 12.7286L12.1216 12.6456C12.1216 12.5625 12.2046 12.5625 12.2046 12.4795C12.2046 12.3965 12.2046 12.3135 12.2046 12.1474C12.2046 11.8153 12.2046 11.5663 12.2876 11.3172C12.3707 11.0681 12.3707 10.9021 12.4537 10.736C12.5367 10.57 12.6197 10.487 12.7028 10.4039C12.7858 10.3209 12.8688 10.2379 12.8688 10.2379H12.9518C13.1179 10.1549 13.3669 10.2379 13.533 10.4039C13.7821 10.57 14.0311 10.8191 14.1972 11.0681C14.3632 11.3172 14.6123 11.5663 14.9444 11.8984C15.2765 12.2304 15.5255 12.4795 15.6916 12.5625L15.9406 12.7286C16.1067 12.8116 16.2727 12.8946 16.5218 12.9777C16.7709 13.0607 16.9369 13.0607 17.103 13.0607L19.9258 12.9777C20.1748 12.9777 20.4239 12.8946 20.5899 12.8116C20.756 12.7286 20.839 12.6456 20.839 12.4795C20.839 12.3965 20.839 12.2304 20.839 12.1474C20.6729 11.9814 20.673 11.8983 20.673 11.8153Z" fill="white"/>
</svg>

<svg width="21" height="14" fill="none" xmlns="http://www.w3.org/2000/svg"><path d="M20.673 11.815c0-.083-.083-.083-.083-.166-.332-.664-1.08-1.494-2.076-2.407-.498-.415-.747-.748-.913-.914-.249-.332-.249-.58-.166-.913.083-.249.415-.664.996-1.411.332-.415.498-.664.747-.914 1.246-1.66 1.827-2.74 1.661-3.237l-.083-.083c-.083-.083-.166-.166-.332-.166-.166-.084-.415-.084-.664 0h-3.736l-.083.083c-.083.083-.083.083-.083.166-.333.913-.748 1.66-1.163 2.49-.249.415-.498.83-.747 1.163-.249.332-.415.58-.581.747-.166.166-.332.249-.415.415-.083.083-.25.166-.25.083-.082 0-.165 0-.165-.083l-.25-.25c-.082-.082-.082-.248-.165-.414V1.853c0-.083-.083-.25-.083-.333l-.25-.249c-.082-.083-.249-.083-.332-.166A7.446 7.446 0 0 0 9.963.94c-1.328 0-2.242.083-2.574.25-.166.082-.332.165-.415.331-.166.167-.166.25-.083.25.415.083.747.249.913.498l.083.166c.083.083.083.249.166.498s.083.498.083.83V5.09c0 .416-.083.665-.083.914s-.083.415-.166.498c-.083.166-.083.249-.166.249 0 0 0 .083-.083.083s-.166.083-.332.083c-.083 0-.249-.083-.332-.166a1 1 0 0 1-.415-.415c-.166-.166-.332-.415-.498-.747-.166-.332-.415-.665-.581-1.163l-.166-.332c-.083-.166-.25-.498-.415-.913-.166-.415-.332-.747-.499-1.162a1.146 1.146 0 0 0-.249-.332h-.083s-.083-.083-.166-.083-.166-.084-.249-.084H.664c-.332 0-.498.084-.58.167L0 1.77v.166c0 .083 0 .166.083.332.415.996.914 1.992 1.412 2.989C1.993 6.17 2.49 7 2.823 7.58c.415.581.747 1.162 1.162 1.66.415.499.665.83.748.997l.332.332.249.25c.166.165.415.414.747.663.332.25.747.498 1.162.747.415.25.913.416 1.412.582.58.166 1.079.249 1.577.166h1.245c.25 0 .415-.083.582-.25l.083-.082c0-.084.083-.084.083-.167v-.332c0-.332 0-.58.083-.83.083-.249.083-.415.166-.581.083-.166.166-.249.249-.332l.166-.166h.083c.166-.083.415 0 .581.166.25.166.498.415.664.664.166.25.415.498.747.83.332.332.581.582.748.665l.249.166c.166.083.332.166.58.249.25.083.416.083.582.083l2.823-.083c.249 0 .498-.083.664-.166.166-.083.249-.166.249-.332v-.333c-.166-.166-.166-.249-.166-.332Z" fill="#fff"/></svg>
